tooltip-check.svg

<svg fill="currentColor" viewBox="0 0 24 24"><path d="M20 2H4c-1.1 0-2 .9-2 2v12a2 2 0 0 0 2 2h4l4 4 4-4h4c1.11 0 2-.89 2-2V4a2 2 0 0 0-2-2m-9.54 12-3.5-3.5 1.41-1.42 2.09 2.09L15.64 6l1.41 1.41z"/></svg>

<svg  viewBox="0 0 24 24" fill="currentColor"><path  d="M20 2H4C2.9 2 2 2.9 2 4V16C2 17.11 2.9 18 4 18H8L12 22L16 18H20C21.11 18 22 17.11 22 16V4C22 2.9 21.11 2 20 2M10.46 14L6.96 10.5L8.37 9.08L10.46 11.17L15.64 6L17.05 7.41L10.46 14Z"/></svg>
